!!!OTL: 91. Die Handwerksburschen-Wanderschaft.
!!!OTL-incipit: SEID NUR LUSTIG UND FROEHLICH
!!!COM: Volksweise
!!!ARE: Europa, Mitteleuropa, Deutschland
!!!SCT: F0091
!!!TXL: @@DE
!!!YEM: Copyright 1995, estate of Helmut Schaffrath.
**kern	**text
*ICvox	*
*clefG2	*
*M3/4	*
*k[f#]	*
*G:	*
=1	=1
!LO:TX:a:t=Munter, doch nicht ʒu ſchnell.	!
{4.dd/	1._Seid_nur
8dd/	lu-
8dd/L	-ſtig
8ccJ	und
=2	=2
(<4b	fröh-
4cc)	.
4dd}	-lich,
=3	=3
{4dd	ihr
8eeL	Hand-
8ddJ	.
8cc	-werks-
8b	-ge-
=4	=4
8bL	-ſel-
8aJ	.
4.a	-len,
8r}	.
=5	=5
{8.dd	denn
16ee	es
8dd	kommt
8cc	die
8b	Ʒeit,
8r	.
=6	=6
8.dd	die
16ee	uns
8dd	all'
8cc	erfreut
8b	.
8r}	.
=7	=7
{8g	ſie
8a	iſt
8a	all-
8g	-be-
8a	-reits
8a	ſchon
=8	=8
4a	da-
(>8a	-ha!
4b/)	.
8r}	.
==	==
!!!AGN: Handwerker -, Handwerksburschen -, Wander - Lied
!!!ONB: ESAC (Essen Associative Code) Database: FINK
!!!AMT: simple triple
!!!AIN: vox
!!!EED: Helmut Schaffrath
!!!EEV: 1.0
!!!RDF**kern: > = above
!!!RDF**kern: < = below
!!!GTL: Volkslieder
!!Text: Volkslied
!!@@COMMENT:"NB. Der Strophen und der Lesarten giebt es ohne Ende. Sie ſind aber nicht alle von Belang. Die hier mitgetheilten ſind die erleſenſten und jedenfalls die witʒigſten aus vielen."
!!@@END:
!!!source: Musikalischer Hausschatz der Deutschen. Eine Sammlung von über 1000 Liedern und Gesängen mit Singstimmen und Klavierbegleitung. Leipzig, Litterarisches Verlags-Haus.
!!!page: 56
!!!URL-scan: https://www.digitale-sammlungen.de/en/view/bsb11144622?page=64,65
!!!ENC: Anna Maria Matuszewska
!!!EEV: 2024/07/25
*-	*-
